svgs/sharp-regular/cart-plus.svg

<svg xmlns="http://www.w3.org/2000/svg" viewBox="0 0 576 512"><!--! Font Awesome Pro 6.6.0 by @fontawesome - https://fontawesome.com License - https://fontawesome.com/license (Commercial License) Copyright 2024 Fonticons, Inc. --><path d="M24 0L0 0 0 48l24 0 52.1 0 60.3 316.5 3.7 19.5 19.9 0 328 0 24 0 0-48-24 0-308.1 0-9.1-48L480 288l17.8 0 5.2-17L575.4 32l-50.2 0-63 208-300.6 0-42-220.5L115.9 0 96 0 24 0zM176 512a48 48 0 1 0 0-96 48 48 0 1 0 0 96zm336-48a48 48 0 1 0 -96 0 48 48 0 1 0 96 0zM232 88l0 48 24 0 40 0 0 40 0 24 48 0 0-24 0-40 40 0 24 0 0-48-24 0-40 0 0-40 0-24-48 0 0 24 0 40-40 0-24 0z"/></svg>

<svg xmlns="http://www.w3.org/2000/svg" viewBox="0 0 576 512"><!--! Font Awesome Pro 6.5.2 by @fontawesome - https://fontawesome.com License - https://fontawesome.com/license (Commercial License) Copyright 2024 Fonticons, Inc. --><path d="M24 0H0V48H24 76.1l60.3 316.5 3.7 19.5H160 488h24V336H488 179.9l-9.1-48H480h17.8l5.2-17L575.4 32H525.2l-63 208H161.6l-42-220.5L115.9 0H96 24zM176 512a48 48 0 1 0 0-96 48 48 0 1 0 0 96zm336-48a48 48 0 1 0 -96 0 48 48 0 1 0 96 0zM232 88v48h24 40v40 24h48V176 136h40 24V88H384 344V48 24l-48 0V48 88H256 232z"/></svg>
